raw/symbols/ht.svg

<svg width="42" height="42" viewBox="0 0 42 42" fill="none" xmlns="http://www.w3.org/2000/svg">
<path d="M21 41C32.0457 41 41 32.0457 41 21C41 9.9543 32.0457 1 21 1C9.9543 1 1 9.9543 1 21C1 32.0457 9.9543 41 21 41Z" fill="#2A3069"/>
<path d="M17 29C17 33 18.6667 35.3333 19.5 36.5C19.5 36.5 18.3439 36.422 16.5 35.5C14.6561 34.578 11 31 11 25.5C11 20 17 16.5 18.5 13C19.7 10.2 19.6667 6.83333 19.5 5.5C21.1667 7.16667 24.4 11.6 24 16C23.5 21.5 17 24 17 29Z" fill="#F3F3F3"/>
<path d="M30.5 27C30.5 24 29 20.5 27 18C26.5 20 26.3 20.4 25.5 22C24.5 24 21.3772 26.9821 21 30C20.5 34 22.8333 36 24 36.5C24.1667 36.1667 24.1783 36.2145 26 35C27.8217 33.7855 30.5 31.0311 30.5 27Z" fill="#F3F3F3"/>
</svg>

<svg xmlns="http://www.w3.org/2000/svg" width="42" height="42" fill="none"><path fill="#2A3069" d="M21 41c11.046 0 20-8.954 20-20S32.046 1 21 1 1 9.954 1 21s8.954 20 20 20Z"/><path fill="#F3F3F3" d="M17 29c0 4 1.667 6.333 2.5 7.5 0 0-1.156-.078-3-1S11 31 11 25.5s6-9 7.5-12.5c1.2-2.8 1.167-6.167 1-7.5 1.667 1.667 4.9 6.1 4.5 10.5-.5 5.5-7 8-7 13Z"/><path fill="#F3F3F3" d="M30.5 27c0-3-1.5-6.5-3.5-9-.5 2-.7 2.4-1.5 4-1 2-4.123 4.982-4.5 8-.5 4 1.833 6 3 6.5.167-.333.178-.285 2-1.5s4.5-3.969 4.5-8Z"/></svg>
